X:926
T:Pull down the blind
R:Waltz
B:Roche 3 p50
S:Roche 3 p50
Z:Transcription, minor arr., chords:Mike Long
M:3/4
L:1/4
K:D
F|\
"D"D(F>MG)|A2B|A(d>Me)|f2a|a(g>Mf)|"A"e2f|"G"edB|"A"AFE|\
"D"D(F>MG)|A2B|A(d>Me)|f2a|
a(g>f)|"A"(eB)c|"D"(df)e|d2:|\
|:A|\
"D"f/f/ff|"A"e/e/ee|"G"dcB|"D"AFA|"G"B/B/BB|
"A"c/c/cc|"G"dcB|"D"AFA|\
"D"f/f/ff|"A"e/e/ee|"G"dcB|"D"AFA|"G"B2B|"A"c2c|ABc|"D"d2:|
